X: 21252
M: 6/8
L: 1/8
K: D
V: 1 name="5"
z |\
d2z d2z | {e}dcd f2z | AGA c2z | ddd d2z |\
(3(d/d/d/) |\
(dAf) d2(3(d/d/d/) | dAf  d2(3(d/d/d/) | dAf dAf | dAB cde |\
f2f f2f | fef d2z | e2d cBc | d3 "^D.C."z2 |]
f |\
f2e d2d | e2d c2z | e2d cde | fed z2z |\
f2e d2d | g2f e2z | e2d cBc | d3 "^D.C."z2 |]
(3(A/A/A/) |\
x3 e2e & dAd dAd | dAd f2z | e2d cBc | d3 "^D.C."z2 |]


